!!!!SEGMENT: Sil2012-Virgo_carens_criminibus.krn
!!!id: Sil2012
!!!AGN: Motet
!!!SCT: Smijers (1960); Kirsch (1970)
!!!voices: 4
!!!COM: Andreas de Silva
!!!OTL: Virgo carens criminibus
**kern	**kern	**kern	**kern
*part4	*part3	*part2	*part1
*staff4	*staff3	*staff2	*staff1
*I"Bassus	*I"Tenor	*I"Altus	*I"Superius
*I'B	*I'T	*I'A	*I'S
*clefGv2	*clefG2	*clefG2	*clefG2
*k[b-]	*k[b-]	*k[b-]	*k[b-]
*F:	*F:	*F:	*F:
*M2/1	*M2/1	*M2/1	*M2/1
*met(C|)	*met(C|)	*met(C|)	*met(C|)
!!section: Prima pars: Virgo carens criminibus
!!!OMD: Prima pars: Virgo carens criminibus
=1	=1	=1	=1
1c	0r	0r	0r
[1f	.	.	.
=2	=2	=2	=2
1f]	1f	0r	0r
1f	[1cc	.	.
=3	=3	=3	=3
1.e	1cc]	0r	0r
.	1cc	.	.
2c	.	.	.
=4	=4	=4	=4
1d	1b-y	0r	1f
1e	1g	.	[1cc
=5	=5	=5	=5
1.f	1.a	0r	1cc]
.	.	.	1cc
2e	2g	.	.
=6	=6	=6	=6
1d	1f	1f	1b-y
1c	2.e	[1cc	1g
.	4d	.	.
=7	=7	=7	=7
1A	2e	1cc]	1.a
.	2.f	.	.
1A	.	1cc	.
.	4e	.	.
.	2c	.	2g
=8	=8	=8	=8
1B-y	1d	1b-y	1f
[1c	2c	1g	1e
.	2cc	.	.
=9	=9	=9	=9
2c]	2cc	1.a	2r
2A	2cc	.	2e
2d	2a	.	2f
2d	4g	2b-y	2f
.	4f	.	.
=10	=10	=10	=10
0c	1e	[0cc	1.g
.	1g	.	.
.	.	.	2e
=11	=11	=11	=11
2r	1f	0cc]	1a
2A	.	.	.
2A	[1e	.	1a
2A	.	.	.
=12	=12	=12	=12
1.c	1e]	1r	2.g
.	.	.	4f
.	2r	2r	2g
2A	2e	2a	[2a
=13	=13	=13	=13
2d	2f	2a	4a]
.	.	.	4g
2d	2f	2b-y	2f
2.c	2.g	[1cc	2e
.	.	.	[2c
4d	4f	.	.
=14	=14	=14	=14
4e	4g	2cc]	2c]
4c	4e	.	.
1f	2.a	2a	2cc
.	.	2dd	2a
.	4g	.	.
2B-y	[2f	2dd	2b-y
=15	=15	=15	=15
1c	2f]	1cc	1g
.	2e	.	.
2r	[1f	2r	1f
[2f	.	[2a	.
=16	=16	=16	=16
2f]	1f]	2a]	2r
2f	.	2a	1cc
2f	1r	2a	.
2f	.	2a	2cc
=17	=17	=17	=17
1c	1r	1g	2cc
.	.	.	2cc
[1d	2r	[1f	2a
.	[2a	.	[2dd
=18	=18	=18	=18
2d]	2a]	2f]	2dd]
2A	2a	2e	2dd
1A	2a	[1e	[1cc
.	2a	.	.
=19	=19	=19	=19
0r	1g	2e]	1cc]
.	.	4d	.
.	.	4c	.
.	[1f	[1d	[1a
=20	=20	=20	=20
2r	2f]	1d]	0a_
2d	2f	.	.
2d	1e	1A	.
2c	.	.	.
=21	=21	=21	=21
1.f	0r	2r	1a]
.	.	2d	.
.	.	2d	1r
2e	.	2c	.
=22	=22	=22	=22
2d	0r	1.f	2r
2d	.	.	2a
1c	.	.	2a
.	.	2e	2g
=23	=23	=23	=23
0r	2r	2f	1.cc
.	2a	2f	.
.	2a	2c	.
.	2g	2g	2b-y
=24	=24	=24	=24
2r	1.cc	2f	2.a
2A	.	2e	.
.	.	.	4b-y
2A	.	2c	2cc
2G	2b-y	2g	2dd
=25	=25	=25	=25
1.c	2.a	4e	2.cc
.	.	4d	.
.	.	4e	.
.	8gL	4f	4b-y
.	8fJ	.	.
.	2e	2g	2cc
2B-y	2f	2d	[2dd
=26	=26	=26	=26
2A	1c	2e	4dd]
.	.	.	4cc
2A	.	2f	1cc
1G	1d	1g	.
.	.	.	2bni
=27	=27	=27	=27
2r	2c	2r	1cc
1c	1g	1e	.
.	.	.	2r
[2c	[2g	[2e	2cc
=28	=28	=28	=28
2c]	2g]	2e]	2cc
2c	2g	2e	2cc
2d	2f	2f	2a
2c	2g	2e	2cc
=29	=29	=29	=29
2A	2a	2e	2cc
2A	2a	2f	2cc
[1c	[1g	1e	1cc
=30	=30	=30	=30
1c]	1g]	2r	2r
.	.	2e	2cc
1r	1r	2f	2cc
.	.	2g	2b-y
=31	=31	=31	=31
0r	0r	1.a	1.cc
.	.	2g	2b-y
=32	=32	=32	=32
2r	2r	1f	1a
2A	2cc	.	.
2c	2cc	1e	1g
2c	2cc	.	.
=33	=33	=33	=33
2.d	2b-y	1f	1f
.	1a	.	.
4e	.	.	.
2f	.	2r	2r
2c	2g	2e	2cc
=34	=34	=34	=34
2d	1f	2f	2cc
2d	.	2f	2b-y
1c	1e	4g	[1cc
.	.	4f	.
.	.	4g	.
.	.	4e	.
=35	=35	=35	=35
1r	1r	2a	2cc]
.	.	2.g	2b-y
2r	2r	.	1a
.	.	4f	.
2A	2cc	[2f	.
=36	=36	=36	=36
2c	2cc	2f]	1g
2c	2cc	2e	.
2.d	2b-y	1f	1f
.	[2a	.	.
4e	.	.	.
=37	=37	=37	=37
2f	2a]	2r	2r
2c	2g	2e	2cc
2d	1f	2f	2cc
2d	.	2f	2b-y
=38	=38	=38	=38
[0c	0e	4g	1.cc
.	.	4f	.
.	.	4g	.
.	.	4e	.
.	.	2a	.
.	.	[2g	2b-y
=39	=39	=39	=39
0c]	2r	4g]	1a
.	.	4f	.
.	1cc	1f	.
.	.	.	1g
.	2cc	2e	.
=40	=40	=40	=40
2r	0a	2f	1f
1f	.	1cc	.
.	.	.	2r
2f	.	2cc	[2a
=41	=41	=41	=41
1d	1.f	2dd	2a]
.	.	1a	2a
[1B-y	.	.	[1dd
.	8fL	4g	.
.	8e	.	.
.	8d	4f	.
.	8cJ	.	.
=42	=42	=42	=42
1B-]	1d	2.g	1dd]
.	.	4f	.
2A	2e	1a	2cc
[2d	[2f	.	2a
=43	=43	=43	=43
4d]	2f]	2f	2b-y
4c	.	.	.
1c	2e	2g	2cc
.	2.f	2a	1dd
2Bni	.	2b-y	.
.	4g	.	.
=44	=44	=44	=44
0c	1e	0g	1cc
.	2r	.	2r
.	2e	.	2cc
=45	=45	=45	=45
0r	2e	0r	2cc
.	2f	.	2cc
.	[1g	.	2.b-y
.	.	.	4a
=46	=46	=46	=46
1r	2g]	1r	4b-y
.	.	.	4cc
.	2f	.	1dd
2r	1e	2r	.
2G	.	2g	2cc
=47	=47	=47	=47
2G	1d	2g	2cc
2G	.	2g	2bni
[1c	1c	[1e	[1cc
=48	=48	=48	=48
2c]	1r	2e]	1cc]
2B-y	.	2d	.
1c	2r	1e	2r
.	2e	.	2cc
=49	=49	=49	=49
1A	2e	1c	2cc
.	2f	.	2cc
1G	[1g	1d	[1b-y
=50	=50	=50	=50
0r	2g]	0r	2b-]
.	2e	.	2g
.	2f	.	2a
.	2g	.	2b-y
=51	=51	=51	=51
2r	0e	2r	0g
2c	.	2cc	.
2c	.	2cc	.
2c	.	2cc	.
=52	=52	=52	=52
1.f	0r	1.a	1r
.	.	.	2r
2e	.	2g	2cc
=53	=53	=53	=53
2f	1r	2a	2cc
2d	.	2b-y	2dd
2.c	2r	1cc	1g
.	2e	.	.
4B-y	.	.	.
=54	=54	=54	=54
1A	2e	2r	1cc
.	2f	2c	.
1G	1g	2d	2b-y
.	.	2e	2b-y
=55	=55	=55	=55
1r	2d	1.f	1a
.	2.a	.	.
2r	.	.	1r
.	4b-y	.	.
2c	4cc	2e	.
.	4a	.	.
=56	=56	=56	=56
2d	2b-y	2f	0r
2e	2.cc	2g	.
[1f	.	1a	.
.	4b-y	.	.
.	8ccL	.	.
.	8b-y	.	.
.	8a	.	.
.	8gJ	.	.
=57	=57	=57	=57
2f]	2a	1r	2r
2e	2cc	.	2g
2f	2cc	2r	2a
2d	2dd	2f	2b-y
=58	=58	=58	=58
2.c	2g	2g	2cc
.	2e	2a	2c
8B-yL	.	.	.
8AJ	.	.	.
4G	1g	1b-y	4d
4A	.	.	4c
4B-y	.	.	4d
4c	.	.	4e
=59	=59	=59	=59
2.d	2.f	1a	4f
.	.	.	4e
.	.	.	4f
4e	4e	.	4g
2f	2d	2f	4a
.	.	.	4b-y
2e	2c	[2g	[2cc
=60	=60	=60	=60
1d	1f	4g]	4cc]
.	.	4f	4bni
.	.	1f	4bni
.	.	.	8aL
.	.	.	8bniJ
1c	1g	.	[1ccl
.	.	2e	.
=61	=61	=61	=61
00Fl	00fl	00fl	00cc]
==	==	==	==
*-	*-	*-	*-
!!!system-decoration: [*]
!!!RDF**kern: i = editorial accidental
!!!RDF**kern: l = terminal long
!!!ENC: Benjamin Ory
!!!END: 2023/9/15
!!!EED: Benjamin Ory
!!!EEV: 2023/09/15
!!!YEC: Copyright 2023 Benjamin Ory, All Rights Reserved
!!!ONB: Translated from MusicXML on 2023/09/15
